media/layered-waves-haikei.svg

<svg width="960" height="540" xmlns="http://www.w3.org/2000/svg"><path fill="#001220" d="M0 0h960v540H0z"/><path d="m0 407 22.8-17.3c22.9-17.4 68.5-52 114.2-60.9 45.7-8.8 91.3 8.2 137 5.2 45.7-3 91.3-26 137.2-37.7 45.8-11.6 91.8-12 137.6-10.5 45.9 1.5 91.5 4.9 137.2 6.4 45.7 1.5 91.3 1.1 137 12.3 45.7 11.2 91.3 33.8 114.2 45.2L960 361V0H0Z" fill="#fa7268"/><path d="m0 311 22.8-9.7c22.9-9.6 68.5-29 114.2-34.6 45.7-5.7 91.3 2.3 137-7.5 45.7-9.9 91.3-37.5 137.2-50 45.8-12.5 91.8-9.9 137.6 14.5C594.7 248 640.3 294 686 303.2c45.7 9.1 91.3-18.5 137-41.9 45.7-23.3 91.3-42.3 114.2-51.8L960 200V0H0Z" fill="#ef5f67"/><path d="m0 169 22.8 5.8c22.9 5.9 68.5 17.5 114.2 12.5s91.3-26.6 137-38.5c45.7-11.8 91.3-13.8 137.2.4 45.8 14.1 91.8 44.5 137.6 55.3 45.9 10.8 91.5 2.2 137.2 8.5 45.7 6.3 91.3 27.7 137 36.7 45.7 9 91.3 5.6 114.2 4L960 252V0H0Z" fill="#e34c67"/><path d="m0 124 22.8 4.2c22.9 4.1 68.5 12.5 114.2 15.5s91.3.6 137 4c45.7 3.3 91.3 12.3 137.2 20.1 45.8 7.9 91.8 14.5 137.6 17.4 45.9 2.8 91.5 1.8 137.2-9.4 45.7-11.1 91.3-32.5 137-33.5s91.3 18.4 114.2 28L960 180V0H0Z" fill="#d53867"/><path d="m0 67 22.8 3.2c22.9 3.1 68.5 9.5 114.2 13.5s91.3 5.6 137 8.6 91.3 7.4 137.2 7.2c45.8-.2 91.8-4.8 137.6-7.7 45.9-2.8 91.5-3.8 137.2-.6 45.7 3.1 91.3 10.5 137 1.8s91.3-33.3 114.2-45.7L960 35V0H0Z" fill="#c62368"/></svg>

<svg id="visual" viewBox="0 0 960 540" width="960" height="540" xmlns="http://www.w3.org/2000/svg" xmlns:xlink="http://www.w3.org/1999/xlink" version="1.1"><rect x="0" y="0" width="960" height="540" fill="#001220"></rect><path d="M0 407L22.8 389.7C45.7 372.3 91.3 337.7 137 328.8C182.7 320 228.3 337 274 334C319.7 331 365.3 308 411.2 296.3C457 284.7 503 284.3 548.8 285.8C594.7 287.3 640.3 290.7 686 292.2C731.7 293.7 777.3 293.3 823 304.5C868.7 315.7 914.3 338.3 937.2 349.7L960 361L960 0L937.2 0C914.3 0 868.7 0 823 0C777.3 0 731.7 0 686 0C640.3 0 594.7 0 548.8 0C503 0 457 0 411.2 0C365.3 0 319.7 0 274 0C228.3 0 182.7 0 137 0C91.3 0 45.7 0 22.8 0L0 0Z" fill="#fa7268"></path><path d="M0 311L22.8 301.3C45.7 291.7 91.3 272.3 137 266.7C182.7 261 228.3 269 274 259.2C319.7 249.3 365.3 221.7 411.2 209.2C457 196.7 503 199.3 548.8 223.7C594.7 248 640.3 294 686 303.2C731.7 312.3 777.3 284.7 823 261.3C868.7 238 914.3 219 937.2 209.5L960 200L960 0L937.2 0C914.3 0 868.7 0 823 0C777.3 0 731.7 0 686 0C640.3 0 594.7 0 548.8 0C503 0 457 0 411.2 0C365.3 0 319.7 0 274 0C228.3 0 182.7 0 137 0C91.3 0 45.7 0 22.8 0L0 0Z" fill="#ef5f67"></path><path d="M0 169L22.8 174.8C45.7 180.7 91.3 192.3 137 187.3C182.7 182.3 228.3 160.7 274 148.8C319.7 137 365.3 135 411.2 149.2C457 163.3 503 193.7 548.8 204.5C594.7 215.3 640.3 206.7 686 213C731.7 219.3 777.3 240.7 823 249.7C868.7 258.7 914.3 255.3 937.2 253.7L960 252L960 0L937.2 0C914.3 0 868.7 0 823 0C777.3 0 731.7 0 686 0C640.3 0 594.7 0 548.8 0C503 0 457 0 411.2 0C365.3 0 319.7 0 274 0C228.3 0 182.7 0 137 0C91.3 0 45.7 0 22.8 0L0 0Z" fill="#e34c67"></path><path d="M0 124L22.8 128.2C45.7 132.3 91.3 140.7 137 143.7C182.7 146.7 228.3 144.3 274 147.7C319.7 151 365.3 160 411.2 167.8C457 175.7 503 182.3 548.8 185.2C594.7 188 640.3 187 686 175.8C731.7 164.7 777.3 143.3 823 142.3C868.7 141.3 914.3 160.7 937.2 170.3L960 180L960 0L937.2 0C914.3 0 868.7 0 823 0C777.3 0 731.7 0 686 0C640.3 0 594.7 0 548.8 0C503 0 457 0 411.2 0C365.3 0 319.7 0 274 0C228.3 0 182.7 0 137 0C91.3 0 45.7 0 22.8 0L0 0Z" fill="#d53867"></path><path d="M0 67L22.8 70.2C45.7 73.3 91.3 79.7 137 83.7C182.7 87.7 228.3 89.3 274 92.3C319.7 95.3 365.3 99.7 411.2 99.5C457 99.3 503 94.7 548.8 91.8C594.7 89 640.3 88 686 91.2C731.7 94.3 777.3 101.7 823 93C868.7 84.3 914.3 59.7 937.2 47.3L960 35L960 0L937.2 0C914.3 0 868.7 0 823 0C777.3 0 731.7 0 686 0C640.3 0 594.7 0 548.8 0C503 0 457 0 411.2 0C365.3 0 319.7 0 274 0C228.3 0 182.7 0 137 0C91.3 0 45.7 0 22.8 0L0 0Z" fill="#c62368"></path></svg>
